X:1
T:GB/6b/28 The Banks of Green Willow Version 3 of 4-0
T:GB/6b/28 The Banks of Green Willow Version 3 of 4-0
T:The following tune comes from the collection of the late Mr. Hammond. R.V.W. C:Sung by Mr. J. Welsh, Wareham (Dorset)
T:Transcribed by Simon Furey and Lewis Jones
C:Transcribed by Simon Furey and Lewis Jones
L:1/8
M:3/4
K:G
V:1 treble 
V:1
 G2 | B2 G2 B2 | A2 F2 D2 | E3 F GE |"^(a)" D2 B,2 B,2 | G2 G2 B,B, | C2 E2 B,C | D2 c2 B2 | %8
 A2 G2 || G2 | x6 | x6 | Tf2 a2 e2 a2 | c2 a2!p! a2 | ve2 d2 e2 a2 e2 e2 (a2 | d2) e2 e2 | %16
 c2 ua2 f2 a2 | ud2 a2 ug2 e2 a2 e2 | c2 e2 ve2 | d2 e2 a2 | C2 e2 | B>A G2 B2 | A>F D2 GF | %23
 E2 C2 AF | (G>F) D2 D2 | G2 G2 B,2 |"^(b)" C2 E2 B,C | D2 c2 B2 | A2 G2 || x6 | e2 b2 e2 c2 e2 | %31
 e2 b2 e2 c2 e2 | ud2 a2 d2 | e2 a2 | G2 | B2 G2 B2 | A2 F2 D2 | E3 F GE |"^(a) var." DC B,2 D2 | %39
 G2 G2 B,2 | C2 B,2 B,C | D2 c2 B2 | A2 G2 || G2 | B>A G2 B2 | A>F D2 GF | E2 C2 AF | G>F D2 D2 | %48
 G2 G2 B,2 |"^(b) var." C2 B,2 B,C | D2 c2 B2 | A2 G2 |] %52

